X:1
T:Clear upon the Night Air Sounding
T:Clear upon the Night Air Sounding
T:John Sebastian Bach Hodges
T:Anonymous, 1872
T:Public Domain Courtesy of the Cyber Hymnal™
T:Public Domain Courtesy of the Cyber Hymnal™
C:John Sebastian Bach Hodges
Z:Public Domain
Z:Courtesy of the Cyber Hymnal™
%%score ( 1 2 ) ( 3 4 )
L:1/8
Q:1/4=110
M:4/4
K:D
V:1 treble 
V:2 treble 
V:3 bass 
V:4 bass 
V:1
 D3 [DE] [DF]2 [FA]2 | G2 [Fd]2 [Ec]2 [CB]2 | [DA]3 [CA] [B,G]2 [DF]2 | [CE]2 [CF]2 D4 | %4
w: 1.~Clear up- on the|night air sound- ing,|Sweet- ly e- choing|o’er the plain;|
w: 2.~Pro- phets told the|won- drous sto- ry|Of the fu- ture|King and Lord;|
w: 3.~We who know the|lov- ing Sav- ior,|Who have found the|last- ing peace;|
 D3 [DE] [DF]2 [FA]2 | G2 [Fd]2 [=Fc]2 [FB]2 | [EA]3 E [DF]2 [DA]2 | [DB]3 [EB] [CA]4 | %8
w: Fell the an- gel|voice an- nounc- ing,|“Christ is born in|Beth- le- hem.”|
w: Who from up- per|realms of glo- ry|Should des- cend our|Light and Word.|
w: Who have heard His|voice ce- les- tial,|Bid- ding all our|sor- rows cease;|
!<(! [CG]3 [EG]!<)! [DF]2 [CE]2 | [DA]3 [DA] [CG]2 [DF]2 |!f! [DB]3 [DB] [Gc]2 [Fd]2 | %11
w: Clear- er, sweet- er,|swelled the cho- rus,|From the an- gel|
w: But they knew not|all His bright- ness,|Nor the full- ness|
w: We can raise the|song of tri- umph,|With th’an- gel- ic|
 [EA]2 [DA]2 [CA]4 | [Fd]2 [FA]2 [GB]2 [DF]2 | [EA]3 [CG] [DF]2 D2 | [Fd]2 [FA]2 [GB]2 [DF]2 | %15
w: host ar- ound,|“Glo- ry, glo- ry|in the high- est,|And on earth good|
w: of His grace,|Could not join the|heav’n- ly cho- rus,|Nor the song of|
w: host pro- claim,|“Glo- ry, glo- ry|in the high- est!|Christ is born in|
 [EA]2 [FA]2 [EG]4 | z2!p! [DF][DF] [DF]2 [FA]2 | [FA]2 [Gd]2 [Fd]4 |!mf! [Fd]3 [Fd] [Fc]2 [FB]2 | %19
w: will a- bound.”|As the an- gels|sing we sing,|Glo- ry to the|
w: tri- umph raise.|As the an- gels|sang we sing,|Glo- ry to our|
w: Beth- le- hem.”|As the an- gels|sang we sing,|Glo- ry to our|
 [F^A]2 [^E^G]2 F4 | z2!<(! FF!<)! F2 [F^A]2 | [F^A]2 [Ec]2 [Ec]4 |!ff! [Dd]3 [Dc] [DB]2 [DA]2 | %23
w: new- born King.|And our songs we’ll|ne- ver cease|Glo- ry to the|
w: God and king.|And our songs we’ll|ne- ver cease|Glo- ry to the|
w: God and king.|And our songs we’ll|ne- ver cease|Glo- ry to the|
 [DG]2 [DF]2 [EB]4 | E2 (F[DG]) [DA]2 [Fd]2 | [Ee]2 [Gc]2 [Fd]4 |] %26
w: Prince of Peace!|Glo- ry * to the|Prince of Peace!|
w: Prince of Peace!|Glo- ry * to the|Prince of Peace!|
w: Prince of Peace!|Glo- ry * to the|Prince of Peace!|
V:2
 D3 x5 | G2 x6 | x8 | x4 D4 | D3 x5 | G2 x6 | x3 E x4 | x8 | x8 | x8 | x8 | x8 | x8 | x6 D2 | x8 | %15
 x8 | x8 | x8 | x8 | x4 F4 | x2 FF F2 x2 | x8 | x8 | x8 | C3 x5 | x8 |] %26
V:3
 [D,F,]3 [D,G,] [D,A,]2 [D,=C]2 | [D,B,]2 [D,A,]2 [D,G,]2 [D,G,]2 | %2
 [D,F,]3 [D,F,] [G,,G,B,]2 [D,A,]2 | [A,,G,]2 [A,,A,]2 [D,F,]4 | [D,F,]3 [D,G,] [D,A,]2 [D,=C]2 | %5
 [D,B,]2 [D,A,]2 [D,^G,]2 [D,G,]2 | [C,A,]3 [C,A,] [D,A,]2 [F,A,]2 | [E,^G,]3 [E,G,] [A,,A,]4 | %8
 [A,,E,]3 [A,,A,] A,2 [G,A,]2 | [F,A,]3 [F,A,] [E,A,]2 [D,A,]2 | G,3 [F,G,] [E,G,]2 [D,A,]2 | %11
 [C,A,]2 [D,F,]2 [A,,E,]4 | [B,,D]2 [D,D]2 [G,,D]2 [B,,D]2 | [A,,C]3 [A,,A,] [D,A,]2 [D,F,]2 | %14
 [B,,D]2 [B,,D]2 [G,,D]2 [B,,D]2 | [A,,C]2 [B,,D]2 [A,,C]4 | %16
 [D,,D,]2!p! [D,A,][D,A,] [D,A,]2 [D,=C]2 | [D,=C]2 [D,B,]2 [D,A,]4 | [B,,D]3 [B,,D] [C,E]2 D2 | %19
 [F,C]2 [C,B,]2 [F,,F,^A,]4 | F,,2- [F,^A,][F,A,] [F,A,]2 [F,C]2 | [F,C]2 [F,^A,]2 [F,A,]4 | %22
!ff! B,3 [A,B,] [G,B,]2 [F,D]2 | [B,D]2 [A,D]2 [^G,D]4 | [A,C]3 [G,B,] [F,A,]2 [D,A,]2 | %25
 A,2 [A,,A,]2 [D,A,]4 |] %26
V:4
 x8 | x8 | x8 | x8 | x8 | x8 | x8 | x8 | x4 A,2 x2 | x8 | G,3 x5 | x8 | x8 | x8 | x8 | x8 | %16
 x D,,4- x3 | D,,8 | x6 (D,E,) | x8 | x8 | F,,8 | B,3 x5 | x8 | x8 | A,2 x6 |] %26

